X: 31905
T: Peacock Follow The Hen
R: slip jig
M: 9/8
K: Edorian
|:GAB EFE E2F|~G3 EFG AFD|GAB EFE EFG|FED d2B AFD:|
|:GAB B=cB B2A|GAB B=cd AFD|GAB B=cB B2c|dcB A2G FED:|

